X:309
T: KOESTER MINNE MANN ES DOOT
N: E0911
O: Europa, Mitteleuropa, Deutschland, Niederrhein, Wesel, Xanten
R: Ehestands - Lied
M: 2/4
L: 1/16
K: Bb
F2 | F2B2B2B2 | B2AGF4
G2G2A2F2 | B2d2B2
F2 | F2B2B2B2 | B2AGF4
G2G2A2F2 | B2d2B2z2
A2A2B2B2 | e2e2d4
c2c2A2F2 | f2ffd4
c2c2A2F2 | B2d2B2

